public/flags/CR.svg

<svg width="61" height="53" viewBox="0 0 61 53" fill="none" xmlns="http://www.w3.org/2000/svg">
<rect x="1.53036" y="3.53036" width="57.9393" height="41.4393" rx="3.7125" fill="white" stroke="#F5F5F5" stroke-width="1.06071"/>
<mask id="mask0" mask-type="alpha" maskUnits="userSpaceOnUse" x="1" y="3" width="59" height="43">
<rect x="1.53036" y="3.53036" width="57.9393" height="41.4393" rx="3.7125" fill="white" stroke="white" stroke-width="1.06071"/>
</mask>
<g mask="url(#mask0)">
<path fill-rule="evenodd" clip-rule="evenodd" d="M1 11.5H60V3H1V11.5Z" fill="#06358F"/>
<path fill-rule="evenodd" clip-rule="evenodd" d="M1 45.5H60V37H1V45.5Z" fill="#06358F"/>
<path fill-rule="evenodd" clip-rule="evenodd" d="M1 31.3333H60V17.1667H1V31.3333Z" fill="#E61F37"/>
</g>
</svg>

<svg fill="none" height="53" viewBox="0 0 61 53" width="61" xmlns="http://www.w3.org/2000/svg" xmlns:xlink="http://www.w3.org/1999/xlink"><mask id="a" height="43" maskUnits="userSpaceOnUse" width="59" x="1" y="3"><rect fill="#fff" height="41.4393" rx="3.7125" stroke="#fff" stroke-width="1.06071" width="57.9393" x="1.53036" y="3.53036"/></mask><rect fill="#fff" height="41.4393" rx="3.7125" stroke="#f5f5f5" stroke-width="1.06071" width="57.9393" x="1.53036" y="3.53036"/><g clip-rule="evenodd" fill-rule="evenodd" mask="url(#a)"><path d="m1 11.5h59v-8.5h-59z" fill="#06358f"/><path d="m1 45.5h59v-8.5h-59z" fill="#06358f"/><path d="m1 31.3333h59v-14.1666h-59z" fill="#e61f37"/></g></svg>
